X:1
T:Cat in the Hopper
Z:Cat in the Hopper
L:1/8
M:6/8
I:linebreak $
K:Bb
V:1 treble
V:1
"Gm" DGA B2 c | "F"AFF F2 F | "Gm"G2 G gf=e | "Dm"fdd d2 =e |$
"Dm" fag f=ed | dcA"Gm" B2 c | "D"ded d2 B |  "Gm"BGG G3 ::$
"Gm" g2 g gab |"F" aff f2 a |"Gm" g2 g gf=e |"Dm" fdd d2 =e |$
 "Dm"fag f=ed | dcA "Gm"B2 c |  "D"ded d2 c |"Gm" BGG G3 :|
